X:1
T:Moment Musical No. 2 in Eb Minor
T:Moment Musical No. 2 in Eb Minor
T:from Moments Musicaux, Op. 16
T:Sergei Rachmaninoff (1873-1943) 
C:Sergei Rachmaninoff (1873-1943)
%%score { ( 1 2 ) | ( 3 4 ) }
L:1/8
Q:1/4=92
M:2/4
K:Gb
V:1 treble nm="Grand Piano" snm="Pno."
V:2 treble 
V:3 treble 
V:4 treble 
V:1
"^Allegretto."!pp! ([Bb] [cc']2) !tenuto![cc'] |"_cresc." ([cc'] [=c=c']2) !tenuto![gg'] | %2
!mf! ([gg'][ff']!>(! [_f_f'][ee'])!>)! |!p! ([ee'] [=d=d']2) !tenuto![=A=a] | %4
!pp! ([Bb] [cc']2) !tenuto![cc'] |"_cresc." ([cc'] [=c=c']2) !tenuto![gg'] | %6
!mf! ([gg'][ff']!>(! [_f_f'][ee'])!>)! |!p! ([ee'] [=d=d']2) !tenuto!B | %8
!f! ([=A,=A] [B,B]2) !tenuto![Gg] | ([Gg][Ff] [=E=e][_E_e]) | %10
"_cresc." ([=C=c] [Dd]2) !tenuto![Bb] | ([Bb][Aa] [=G=g][_G_g]) | ([=E=e][Ff])!ff! !>![dd']2 | %13
"_dim." z !tenuto![=c=c']2 !tenuto![Bb] |!pp! ([_A_a] [=A=a]2) !tenuto![Aa] | %15
"_cresc." ([=A=a] [Bb]2) !tenuto![Bb] | ([Bb] [cc']2) !tenuto![cc'] | %17
 ([cc'] [=c=c']2) !tenuto![gg'] |!mf! ([gg'][ff']!>(! [_f_f'][ee'])!>)! | %19
!pp! ([ee'] [=d=d']2) !tenuto![Bb] |!8va(! ([ee'] [_f_f']2) !tenuto![ff'] | %21
"_cresc." ([_f_f'] [=f=f']2) !tenuto![c'c''] | ([c'c''][bb'] [=a=a'][_a_a']) | %23
 ([aa'] [gg']2) !tenuto![^g^g'] |!f! ([=a=a'][^g^g'] [=g=g'][^f^f']) | %25
 ([_g_g'] [=f=f']2) !tenuto![=g=g'] | ([aa'][=g=g'] [_g_g'][ff']) | ([ff'] [=e=e']2) ([^f^f'] | %28
 [=g=g'][^f^f'] =d'2)!8va)! |"_dim." ([^f^f'][^e^e'] ^c'2) | ([=f=f'][=e=e'] =c'2) | %31
 ([=e=e'][^d^d'] =b2) |!pp! ([_e_e'] [=d=d']2) ([ee'] | [__e__e'] [dd']2) ([ee'] | %34
 [dd'] [=c=c']2) ([dd'] | [=c=c'][_c_c']) ([cc'][Bb]) | ([Ee] [=D=d]2) ([Ee] | [__E__e] d2) (e | %38
 [Dd] =c2) (d | [=C=c][_C_c]) ([Cc][B,B]) |!ppp! (6:4:6(=A,/E/G/E/G/E/ (6:4:6G/E/G/E/G/E/) | %41
 (6:4:6(=A,/E/G/E/G/E/ (6:4:6G/E/G/E/G/E/) | (6:4:6(=A,/E/G/E/G/E/ (6:4:6G/E/G/E/G/E/ | %43
 (6:4:6G/E/G/E/G/E/ (6:4:6G/E/G/E/G/E/) |!p!!<(! [B,B]2 [Cc]2!<)! | %45
 (6:4:6z/!pp! ([=a=c']/g/[ac']/)(f/g/ (6:4:6[ac']/)(=e/f/[ac']/_e/g/) |!p!!<(! [B,B]2 [Cc]2!<)! | %47
 (6:4:6z/!pp! ([=a=c']/g/[ac']/)(f/g/ (6:4:6[ac']/)(=e/f/[ac']/_e/g/) | %48
!<(! (6:4:6([e_c']/=g/_g/)([e=c']/=g/_g/) (6:4:6([e_c']/=g/_g/)([e=c']/=g/_g/) | %49
 (6:4:6([e_c']/=g/_g/)([e=c']/b/=a/) (6:4:6([e_c']/=g/_g/)!<)!!ff!!>(!([e=c']/b/a/)!>)! | %50
!p!!<(! !tenuto![=Beg=a=b]!tenuto![=cega=c']- [cegac']2!<)! | %51
!ff!!>(! !>![eg=a=b]!>![=cega=c']- [cegac']2!>)! |!p! (=b=c'!<(!bc'!<)! |!mf! g'f'!>(!_f'e')!>)! | %54
!p! (=b=c'!<(!bc'!<)! |!mf! g'f'!>(!_f'e')!>)! |!p!!<(! [Dd]2 [__E__e]2!<)! | %57
 (6:4:6z/!pp! ([=c'e']/=a/[c'e']/)(_a/=a/ (6:4:6[c'e']/)(=g/_a/[c'e']/_g/=a/) | %58
!p!!<(! [Dd]2 [__E__e]2!<)! | %59
 (6:4:6z/!pp! ([=c'e']/=a/[c'e']/)(_a/=a/ (6:4:6[c'e']/)(=g/_a/[c'e']/_g/=a/) | %60
!<(! (6:4:6([e=b]/=g/_g/)([e=c']/=g/_g/) (6:4:6([eb]/=g/_g/)([ec']/=g/_g/) | %61
 (6:4:6([e=b]/=g/_g/)([e=c']/_b/=a/) (6:4:6([e=b]/=g/_g/)!<)!!ff!!>(!([ec']/_b/a/)!>)! | %62
!p!!<(! !tenuto![^A=df^g^a]!tenuto![=Bdfg=b]- [Bdfgb]2!<)! | %63
!ff!!>(! !>![=df^g^a]!>![=Bdfg=b]- [Bdfgb]2!>)! |!p! (^a=b!<(!ab!<)! |!mf! =f'=e'!>(!_e'=d')!>)! | %66
!p! (^a=b!<(!ab!<)! |!mf! =f'=e'!>(!_e'=d')!>)! |!p!!<(! [=D=d]2 [Ee]2!<)! | %69
 (6:4:6z/!mf! ([^c'=e']/b/[c'e']/)(=a/b/ (6:4:6[c'e']/)(^g/a/[c'e']/=g/b/) | %70
!p!!<(! [=D=d]2 [Ee]2!<)! | %71
!fff! (6:4:6z/!mf! ([^c'=e']/b/[c'e']/)(=a/b/ (6:4:6[c'e']/)(^g/a/[c'e']/=g/b/) | %72
!<(! [=E=e]2 [Ff]2!<)! | %73
!ff! (6:4:6z/ ([e'g']/=d'/[e'g']/)(=c'/d'/!>(! (6:4:6[e'g']/)(=b/c'/[e'g']/=a/c'/)!>)! | %74
!f! !tenuto![Ff]2 !tenuto![Gg]2 |"_cresc." ([^F^f] [^G^g]2)[Q:1/4=46]"_rit." !tenuto![=A=a] | %76
[Q:1/4=92]"^\n"!fff! [_B_e=g_b]4 | %77
 (6:4:6[e'=g']/(=G/B/[e=g]/)(g/b/ (6:4:6[e'g']/)(g/=c'/[e'g']/)!8va(!(g'/b'/ | %78
 (6:4:6[e''=g'']/b'/=g'/)!8va)!([e'=g']/=c'/=g/) (6:4:6([e'g']/c'/g/)([eg]/B/=G/) | %79
 (6:4:6([e'=g']/b/=g/)([e=g]/=c/=G/) (6:4:6([eg]/c/G/)([EG]/B,/=G,/) | [_G,B,E_G]4 | %81
 (6:4:6[e'g']/(G/B/[eg]/)(g/b/ (6:4:6[e'g']/)(g/c'/[e'g']/)!8va(!(g'/b'/ | %82
 (6:4:6[e''g'']/b'/g'/)!8va)!([e'g']/c'/g/) (6:4:6([e'g']/c'/g/)([eg]/B/G/) | %83
"_dim." (6:4:6([e'g']/b/g/)([eg]/c/G/) (6:4:6([eg]/c/G/)([EG]/B,/G,/) | %84
!pp! ([Bb] [cc']2) !tenuto![cc'] |"_cresc." ([cc'] [=c=c']2) !tenuto![gg'] | %86
!mf! ([gg'][ff']!>(! [_f_f'][ee'])!>)! |!p! ([ee'] [=d=d']2) !tenuto![=A=a] | %88
!pp! ([Bb] [cc']2) !tenuto![cc'] |"_cresc." ([cc'] [=c=c']2) !tenuto![gg'] | %90
!mf! ([gg'][ff']!>(! [_f_f'][ee'])!>)! |!p! ([ee'] [=d=d']2) !tenuto!B | %92
!f! ([=A,=A] [B,B]2) !tenuto![Gg] | ([Gg][Ff] [=E=e][_E_e]) | %94
"_cresc." ([=C=c] [Dd]2) !tenuto![Bb] | ([Bb][Aa] [=G=g][_G_g]) | ([=E=e][Ff])!ff! !>![dd']2 | %97
"_dim." z !tenuto![=c=c']2 !tenuto![Bb] |!pp! ([_A_a] [=A=a]2) !tenuto![Aa] | %99
"_cresc." ([=A=a] [Bb]2) !tenuto![Bb] | ([Bb] [cc']2) !tenuto![cc'] | %101
 ([cc'] [=c=c']2) !tenuto![gg'] |!mf! ([gg'][ff']!>(! [_f_f'][ee'])!>)! | %103
!pp! ([ee'] [=d=d']2) !tenuto![Bb] |!8va(! ([ee'] [_f_f']2) !tenuto![ff'] | %105
"_cresc." ([_f_f'] [=f=f']2) !tenuto![c'c''] | ([c'c''][bb'] [=a=a'][_a_a']) | %107
 ([aa'] [gg']2) !tenuto![^g^g'] |!f! ([=a=a'][^g^g'] [=g=g'][^f^f']) | %109
 ([_g_g'] [=f=f']2) !tenuto![=g=g'] | ([aa'][=g=g'] [_g_g'][ff']) | ([ff'] [=e=e']2) ([^f^f'] | %112
 [=g=g'][^f^f'] =d'2)!8va)! |"_dim." ([^f^f'][^e^e'] ^c'2) | ([=f=f'][=e=e'] =c'2) | %115
 ([=e=e'][^d^d'] =b2) |!pp! ([_e_e'] [=d=d']2) ([ee'] | [__e__e'] [dd']2) ([ee'] | %118
 [dd'] [=c=c']2) ([dd'] | [=c=c'][_c_c']) ([cc'][Bb]) | ([Ee] [=D=d]2) ([Ee] | [__E__e] d2) (e | %122
 [Dd] =c2) (d | [=C=c][_C_c]) ([Cc][B,B]) |!ppp! (6:4:6(=A,/E/G/E/G/E/ (6:4:6G/E/G/E/G/E/) | %125
 (6:4:6(=A,/E/G/E/G/E/ (6:4:6G/E/G/E/G/E/) | (6:4:6(=A,/E/G/E/G/E/ (6:4:6G/E/G/E/G/E/ | %127
 (6:4:6G/E/G/E/G/E/ (6:4:6G/E/G/E/G/E/) | !tenuto!=A,!tenuto!B, !tenuto!A,!tenuto!B,- | %129
[Q:1/4=70]"_rit." B,!mf! (=A,2 B, |[Q:1/4=50]"^Adagio." !tenuto!G2) !tenuto![=A,EF]2 | %131
 !tenuto![_F,C_F]2 !tenuto![F,_A,E]2 |!p! !tenuto!!fermata![G,E]4 |] %133
V:2
 (6:4:6z/ (g/f/) z/ (a/g/ (6:4:6f/g/a/) z/ (g/f/) | %1
 (6:4:6z/ (a/g/) z/ (=a/_a/ (6:4:6g/a/=a/) z/ (d'/=c'/) | %2
 (6:4:6z/ (b/=a/) z/ (b/a/) (6:4:6z/ (b/_a/) z/ (b/a/) | %3
 (6:4:6z/ (b/a/) z/ (a/g/ (6:4:6f/g/a/) z/ (g/f/) | %4
 (6:4:6z/ (g/f/) z/ (a/g/ (6:4:6f/g/a/) z/ (g/f/) | %5
 (6:4:6z/ (a/g/) z/ (=a/_a/ (6:4:6g/a/=a/) z/ (d'/=c'/) | %6
 (6:4:6z/ (b/=a/) z/ (b/a/) (6:4:6z/ (b/_a/) z/ (b/a/) | %7
 (6:4:6z/ (b/a/) z/ (a/g/ (6:4:6f/e/=d/) z/ (A/=F/) | %8
 (6:4:6z/ (F/E/) z/ (G/F/ (6:4:6E/F/G/) z/ (=A/B/) | %9
 (6:4:6z/ (B/=A/) z/ (d/=c/) (6:4:6z/ (B/A/) z/ (d/c/) | %10
 (6:4:6z/ (B/A/) z/ (B/A/ (6:4:6G/A/=A/) z/ (=c/d/) | %11
 (6:4:6z/ (d/=c/) z/ (f/e/) (6:4:6z/ (d/c/) z/ (f/e/) | %12
 (6:4:6z/ (=A/B/) z/ (=c/d/) (6:4:6z/ (=c'/b/_a/^f/=g/ | %13
 (6:4:6b/a/=g/) z/ (b/a/ (6:4:6g/f/=e/) z/ (f/e/) | %14
 (6:4:6z/ (_g/f/) z/ (g/f/ (6:4:6e/f/g/) z/ (g/f/) | %15
 (6:4:6z/ (f/e/) z/ (g/f/ (6:4:6e/f/g/) z/ (g/f/) | %16
 (6:4:6z/ (g/f/) z/ (a/g/ (6:4:6f/g/a/) z/ (g/f/) | %17
 (6:4:6z/ (a/g/) z/ (=a/_a/ (6:4:6g/a/=a/) z/ (d'/=c'/) | %18
 (6:4:6z/ (b/=a/) z/ (b/a/) (6:4:6z/ (b/_a/) z/ (b/a/) | %19
 (6:4:6z/ (b/a/) z/ (a/g/ (6:4:6f/g/a/) z/ (g/f/) | %20
!8va(! (6:4:6z/ (c'/b/) z/ (d'/c'/ (6:4:6b/c'/d'/) z/ (c'/b/) | %21
 (6:4:6z/ (d'/c'/) z/ (=d'/_d'/ (6:4:6c'/d'/=d'/) z/ (g'/f'/) | %22
 (6:4:6z/ (e'/=d'/) z/ (_e'/d'/) (6:4:6z/ (e'/d'/) z/ (e'/d'/) | %23
 (6:4:6z/ (d'/c'/) z/ (e'/d'/ (6:4:6c'/d'/e'/) z/ (=e'/=d'/) | %24
 (6:4:6z/ (=d'/^c'/) z/ (d'/c'/) (6:4:6z/ (d'/c'/) z/ (d'/c'/) | %25
 (6:4:6z/ (_b/=a/) z/ (=c'/b/ (6:4:6a/b/c'/) z/ (b/c'/) | %26
 (6:4:6z/ (d'/=c'/) z/ (d'/c'/) (6:4:6z/ (d'/c'/) z/ (d'/c'/) | %27
 (6:4:6z/ (=a/^g/) z/ (=b/a/ (6:4:6g/a/b/) z/ (a/b/) | %28
 (6:4:6z/ (=c'/b/) z/ (c'/b/) (6:4:6z/ (=a/=g/^f/g/a/)!8va)! | %29
 (6:4:6z/ (=b/=a/) z/ (b/a/) (6:4:6z/ (^g/^f/^e/f/g/) | %30
 (6:4:6z/ (_b/a/) z/ (b/a/) (6:4:6z/ (=g/f/=e/f/g/) | %31
 (6:4:6z/ (=a/=g/) z/ (a/g/) (6:4:6z/ (^f/=e/^d/e/f/) | %32
 (6:4:6z/ (_c'/_b/) z/ (b/a/ (6:4:6_g/a/b/) z/ (a/g/) | %33
 (6:4:6z/ (c'/b/) z/ (b/a/ (6:4:6_g/a/b/) z/ (a/g/) | %34
 (6:4:6z/ (a/g/) z/ (g/f/ (6:4:6e/f/g/) z/ (a/g/) | %35
 (6:4:6z/ (g/f/) z/ (g/f/) (6:4:6z/ (f/g/) z/ (e/=d/) | %36
 (6:4:6z/ (c/B/) z/ (B/A/ (6:4:6G/A/B/) z/ (A/G/) | %37
 (6:4:6z/ (c/B/) z/ (B/A/ (6:4:6G/A/B/) z/ (A/G/) | %38
 (6:4:6z/ (A/G/) z/ (G/F/ (6:4:6E/F/G/) z/ (A/G/) | %39
 (6:4:6z/ (G/F/) z/ (G/F/) (6:4:6z/ (F/G/) z/ (E/=D/) | !>!=A,B,- B,2 | !>!=A,B,- B,2 | %42
 !>!=A,B,- B,2- | B,4 | (6:4:6z/ (_A/G/F/G/A/) (6:4:6z/ (A/G/F/G/A/) | [=CG=A=c]4 | %46
 (6:4:6z/ (_A/G/F/G/A/) (6:4:6z/ (A/G/F/G/A/) | [=CG=A=c]4 | x4 | x4 | x4 | x4 | %52
 (6:4:6(=a/e/=B/a/e/=c/ (6:4:6a/e/B/a/e/c/ | (6:4:6_c'/_a/g/c'/a/f/ (6:4:6c'/a/_f/c'/a/e/) | %54
 (6:4:6(=a/e/=B/a/e/=c/ (6:4:6a/e/B/a/e/c/ | (6:4:6_c'/_a/g/c'/a/f/ (6:4:6c'/a/_f/c'/a/e/) | %56
 (6:4:6z/ (c/__B/A/B/c/) (6:4:6z/ (c/B/A/B/c/) | [_E=A=c_e]4 | %58
 (6:4:6z/ (c/__B/A/B/c/) (6:4:6z/ (c/B/A/B/c/) | [_E=A=c_e]4 | x4 | x4 | x4 | x4 | %64
 (6:4:6(^g/=d/^A/g/d/=B/ (6:4:6g/d/A/g/d/B/ | (6:4:6_b/=g/=f/b/g/=e/ (6:4:6b/g/_e/b/g/=d/) | %66
 (6:4:6(^g/=d/^A/g/d/=B/ (6:4:6g/d/A/g/d/B/ | (6:4:6_b/=g/=f/b/g/=e/ (6:4:6b/g/_e/b/g/=d/) | %68
 (6:4:6z/ (=c/B/=A/B/c/) (6:4:6z/ (c/B/A/B/c/) | [=EB^c=e]4 | %70
 (6:4:6z/ (=c/B/=A/B/c/) (6:4:6z/ (c/B/A/B/c/) | [=EB^c=e]4 | %72
 (6:4:6z/ (=d/=c/=B/c/d/) (6:4:6z/ (d/c/B/c/d/) | !>![_G=c_e_g]4 | %74
 (6:4:6z/ (e/d/=c/d/e/) (6:4:6z/ (e/d/c/d/e/) | (6:4:6z/ (^d/^c/=B/c/d/) (6:4:6z/ (d/c/B/c/d/) | %76
 (6:4:6z/ (=G,/B,/[E=G]/)(G/B/ (6:4:6[e_g]/)(G/=c/[e=g]/)g/b/ | x10/3!8va(! x2/3 | x!8va)! x3 | %79
 x4 | (6:4:6z/ (G,/B,/[EG]/)(G/B/ (6:4:6[eg]/)(G/_c/[eg]/)g/b/ | x10/3!8va(! x2/3 | x!8va)! x3 | %83
 x4 | (6:4:6z/ (g/f/) z/ (a/g/ (6:4:6f/g/a/) z/ (g/f/) | %85
 (6:4:6z/ (a/g/) z/ (=a/_a/ (6:4:6g/a/=a/) z/ (d'/=c'/) | %86
 (6:4:6z/ (b/=a/) z/ (b/a/) (6:4:6z/ (b/_a/) z/ (b/a/) | %87
 (6:4:6z/ (b/a/) z/ (a/g/ (6:4:6f/g/a/) z/ (g/f/) | %88
 (6:4:6z/ (g/f/) z/ (a/g/ (6:4:6f/g/a/) z/ (g/f/) | %89
 (6:4:6z/ (a/g/) z/ (=a/_a/ (6:4:6g/a/=a/) z/ (d'/=c'/) | %90
 (6:4:6z/ (b/=a/) z/ (b/a/) (6:4:6z/ (b/_a/) z/ (b/a/) | %91
 (6:4:6z/ (b/a/) z/ (a/g/ (6:4:6f/e/=d/) z/ (A/=F/) | %92
 (6:4:6z/ (F/E/) z/ (G/F/ (6:4:6E/F/G/) z/ (=A/B/) | %93
 (6:4:6z/ (B/=A/) z/ (d/=c/) (6:4:6z/ (B/A/) z/ (d/c/) | %94
 (6:4:6z/ (B/A/) z/ (B/A/ (6:4:6G/A/=A/) z/ (=c/d/) | %95
 (6:4:6z/ (d/=c/) z/ (f/e/) (6:4:6z/ (d/c/) z/ (f/e/) | %96
 (6:4:6z/ (=A/B/) z/ (=c/d/) (6:4:6z/ (=c'/b/_a/^f/=g/ | %97
 (6:4:6b/a/=g/) z/ (b/a/ (6:4:6g/f/=e/) z/ (f/e/) | %98
 (6:4:6z/ (_g/f/) z/ (g/f/ (6:4:6e/f/g/) z/ (g/f/) | %99
 (6:4:6z/ (f/e/) z/ (g/f/ (6:4:6e/f/g/) z/ (g/f/) | %100
 (6:4:6z/ (g/f/) z/ (a/g/ (6:4:6f/g/a/) z/ (g/f/) | %101
 (6:4:6z/ (a/g/) z/ (=a/_a/ (6:4:6g/a/=a/) z/ (d'/=c'/) | %102
 (6:4:6z/ (b/=a/) z/ (b/a/) (6:4:6z/ (b/_a/) z/ (b/a/) | %103
 (6:4:6z/ (b/a/) z/ (a/g/ (6:4:6f/g/a/) z/ (g/f/) | %104
!8va(! (6:4:6z/ (c'/b/) z/ (d'/c'/ (6:4:6b/c'/d'/) z/ (c'/b/) | %105
 (6:4:6z/ (d'/c'/) z/ (=d'/_d'/ (6:4:6c'/d'/=d'/) z/ (g'/f'/) | %106
 (6:4:6z/ (e'/=d'/) z/ (_e'/d'/) (6:4:6z/ (e'/d'/) z/ (e'/d'/) | %107
 (6:4:6z/ (d'/c'/) z/ (e'/d'/ (6:4:6c'/d'/e'/) z/ (=e'/=d'/) | %108
 (6:4:6z/ (=d'/^c'/) z/ (d'/c'/) (6:4:6z/ (d'/c'/) z/ (d'/c'/) | %109
 (6:4:6z/ (_b/=a/) z/ (=c'/b/ (6:4:6a/b/c'/) z/ (b/c'/) | %110
 (6:4:6z/ (d'/=c'/) z/ (d'/c'/) (6:4:6z/ (d'/c'/) z/ (d'/c'/) | %111
 (6:4:6z/ (=a/^g/) z/ (=b/a/ (6:4:6g/a/b/) z/ (a/b/) | %112
 (6:4:6z/ (=c'/b/) z/ (c'/b/) (6:4:6z/ (=a/=g/^f/g/a/)!8va)! | %113
 (6:4:6z/ (=b/=a/) z/ (b/a/) (6:4:6z/ (^g/^f/^e/f/g/) | %114
 (6:4:6z/ (_b/a/) z/ (b/a/) (6:4:6z/ (=g/f/=e/f/g/) | %115
 (6:4:6z/ (=a/=g/) z/ (a/g/) (6:4:6z/ (^f/=e/^d/e/f/) | %116
 (6:4:6z/ (_c'/_b/) z/ (b/a/ (6:4:6_g/a/b/) z/ (a/g/) | %117
 (6:4:6z/ (c'/b/) z/ (b/a/ (6:4:6_g/a/b/) z/ (a/g/) | %118
 (6:4:6z/ (a/g/) z/ (g/f/ (6:4:6e/f/g/) z/ (a/g/) | %119
 (6:4:6z/ (g/f/) z/ (g/f/) (6:4:6z/ (f/g/) z/ (e/=d/) | %120
 (6:4:6z/ (c/B/) z/ (B/A/ (6:4:6G/A/B/) z/ (A/G/) | %121
 (6:4:6z/ (c/B/) z/ (B/A/ (6:4:6_G/A/B/) z/ (A/G/) | %122
 (6:4:6z/ (A/G/) z/ (G/F/ (6:4:6E/F/G/) z/ (A/G/) | %123
 (6:4:6z/ (G/F/) z/ (G/F/) (6:4:6z/ (F/G/) z/ (E/=D/) | !>!=A,B,- B,2 | !>!=A,B,- B,2 | %126
 !>!=A,B,- B,2- | B,4 | x4 | x4 | x4 | x4 | x4 |] %133
V:3
 (6:4:6(=D,/B,/F/C/F/G/ (6:4:6A/G/F/_F/E/=D/) | (6:4:6(E,/C/G/=C/G/A/ (6:4:6=A/_A/G/F/=E/_E/) | %2
 (6:4:6(F,/E/=A/=B/d/=c/) (6:4:6(A,/_F/A/B/d/_c/) | (6:4:6(B,/F/A/B/c/B/ (6:4:6A/G/F/_F/E/=D/) | %4
 (6:4:6(=D,/B,/F/C/F/G/ (6:4:6A/G/F/_F/E/=D/) | (6:4:6(E,/C/G/=C/G/A/ (6:4:6=A/_A/G/F/=E/_E/) | %6
 (6:4:6(F,/E/=A/=B/d/=c/) (6:4:6(A,/_F/A/B/d/_c/) | (6:4:6(B,/F/A/B/c/B/ (6:4:6A/G/F/_F/E/=D/) | %8
[K:bass] (6:4:6(E,,/B,,/=C,/=D,/E,/F,/ (6:4:6G,/A,/=A,/B,/=C/=D/ | %9
 (6:4:6F/E/_D/=C/B,/=A,/ (6:4:6=G,/_G,/F,/F,,/F,/E,/) | %10
 (6:4:6(G,,/D,/E,/F,/G,/A,/ (6:4:6B,/_C/=C/D/E/F/ | %11
 (6:4:6G/F/E/=D/_D/=C/ (6:4:6B,/__B,/A,/A,,/A,/G,/) | %12
 (6:4:6(B,,/F,/=G,/=A,/=C/B,/) (6:4:5x[K:treble] (=G,/ [B,=E]/)(=A,/B,/ | %13
 (6:4:6[=E=G]/)(=B,/=C/[EB]/)(_E/=E/ (6:4:6[Bd]/A/G/A/G/C/) | %14
[K:bass] (6:4:5x[K:treble] (=C/ D/E/D/ (6:4:6C/B,/=A,/D/E/D/ | %15
 (6:4:6=C/D/E/F/E/D/ (6:4:6G/F/E/A/G/F/) | (6:4:6(=D,/B,/F/C/F/G/ (6:4:6A/G/F/_F/E/=D/) | %17
 (6:4:6(E,/C/G/=C/G/A/ (6:4:6=A/_A/G/F/=E/_E/) | (6:4:6(F,/E/=A/=B/d/=c/) (6:4:6(A,/_F/A/B/d/_c/) | %19
 (6:4:6(B,/F/A/B/c/B/ (6:4:6A/G/F/_F/E/=D/) | (6:4:6(=G,/E/B/_F/B/c/ (6:4:6d/c/B/__B/A/=G/) | %21
 (6:4:6(A,/_F/c/=F/c/d/ (6:4:6=d/_d/c/B/=A/_A/) | (6:4:6(B,/A/=d/=e/g/f/ (6:4:6_a/g/f/g/f/B/) | %23
 (6:4:6(C/G/A/B/c/d/ (6:4:6e/d/c/)(=E/^c/)=B/ | %24
 (6:4:6(=A,/=E/=A/^c/=d/^d/ (6:4:6=e/=d/c/=B/_B/A/) | %25
 (6:4:6(=F,/_E/=A/_A/=A/B/ (6:4:6=c/B/A/c/B/A/) | (6:4:6(_A,/E/A/=c/d/=d/ (6:4:6e/_d/c/B/__B/A/) | %27
 (6:4:6(=E,/=D/^G/=G/^G/=A/ (6:4:6=B/A/G/B/A/G/) | %28
 (6:4:6(=G,/=D/=G/=B/=c/^c/ (6:4:6=d/=c/B/=A/G/^F/) | %29
 (6:4:6(^F,/^C/^F/=A/=B/^B/ (6:4:6^c/=B/A/^G/F/^E/) | %30
 (6:4:6(=F,/=C/=F/=A/_B/=B/ (6:4:6=c/_B/A/=G/F/=E/) | %31
 (6:4:6(=E,/=B,/=E/=G/=A/^A/ (6:4:6=B/=A/G/^F/E/^D/) | %32
[K:bass] (6:4:6(_E,,/_B,,/_G,/_B,/E/F/ (6:4:6G/F/E/_D/_C/B,/) | %33
 (6:4:6(G,,/D,/B,/D/E/F/ (6:4:6G/C/B,/G/C/B,/) | (6:4:6(A,,/E,/A,/=C/E/F/ (6:4:6G/F/E/G/F/E/) | %35
 (6:4:6(B,,/A,/=C/=D/E/F/ (6:4:6G/F/E/D/_C/B,/) | %36
 (6:4:6(E,,/B,,/G,/B,/E/F/) (6:4:6z/ (F/E/_D/_C/B,/) | %37
 (6:4:6(G,,/D,/B,/D/E/F/) (6:4:6z/ (C/B,/__E/C/B,/) | (6:4:6(A,,/E,/A,/=C/E/) z/ z (3(D/F/E/) | %39
 (3(B,,,/B,,/F,/[A,=D]) z2 | [E,,B,,G,]4 | [E,,B,,G,]4 | [E,,B,,G,]4 | z4 | %44
 (6:4:6(=D,,/B,,/=C,/=D,/E,/F,/ (6:4:6B,/A,/G,/F,/E,/D,/) | %45
 (6:4:6z/[K:treble] ([=A=c]/G/[Ac]/)(F/G/ (6:4:6[Ac]/)(=E/F/[Ac]/_E/G/) | %46
[K:bass] (6:4:6(=D,,/B,,/=C,/=D,/E,/F,/ (6:4:6B,/A,/G,/F,/E,/D,/) | %47
 (6:4:6z/[K:treble] ([=A=c]/G/[Ac]/)(F/G/ (6:4:6[Ac]/)(=E/F/[Ac]/_E/G/) | %48
 (6:4:6(_c/B/=A/)(=c/B/A/) (6:4:6(_c/B/A/)(=c/B/A/) | %49
 (6:4:6(_c/B/=A/)(=c/G/F/) (6:4:6(_c/B/A/)(=c/G/F/) | %50
[K:bass] (6:4:6([F,,,F,,]/E,/G,/[K:treble]=A,/B,/=B,/ (6:4:6=C/E/G/=A/_B/=B/ | %51
 (6:4:6=c/=B/_B/=A/G/E/ (6:4:6=C/=B,/_B,/=A,/[K:bass]G,/E,/) | %52
 (6:4:6z/ (E,/F,/G,/_A,/=A,/ (6:4:6=B,/=C/=D/E/F/G/) | %53
 (6:4:6z/ (E,/F,/G,/_A,/_B,/ (6:4:6_C/_D/=D/E/F/G/) | %54
 (6:4:6z/ (E,/F,/G,/_A,/=A,/ (6:4:6=B,/=C/=D/E/F/G/) | %55
 (6:4:6z/ (E,/F,/G,/_A,/_B,/ (6:4:6_C/_D/=D/E/F/G/) | %56
 (6:4:6(F,,/D,/E,/F,/G,/A,/ (6:4:6D/C/__B,/A,/G,/F,/) | %57
 (6:4:6z/[K:treble] ([=ce]/=A/[ce]/)(_A/=A/ (6:4:6[ce]/)(=G/_A/[ce]/_G/=A/) | %58
[K:bass] (6:4:6(F,,/D,/E,/F,/G,/A,/ (6:4:6D/C/__B,/A,/G,/F,/) | %59
 (6:4:6z/[K:treble] ([=ce]/=A/[ce]/)(_A/=A/ (6:4:6[ce]/)(=G/_A/[ce]/_G/=A/) | %60
 (6:4:6(=B/_B/=A/)(=c/B/A/) (6:4:6(=B/_B/A/)(c/B/A/) | %61
 (6:4:6(=B/_B/=A/)(=c/G/F/) (6:4:6(=B/_B/A/)(c/G/F/) | %62
[K:bass] (6:4:6([=E,,,=E,,]/=D,/=E,/F,/^G,/^A,/ (6:4:6=B,/[K:treble]=D/=E/F/^G/^A/ | %63
 (6:4:6=B/^A/^G/F/=E/=D/ (6:4:6B,/[K:bass]^A,/^G,/F,/=E,/=D,/) | %64
 (6:4:6z/ (=D,/=E,/F,/=G,/^G,/ (6:4:6^A,/=B,/^C/=D/=E/F/) | %65
 (6:4:6z/ (=D,/=E,/F,/=G,/=A,/ (6:4:6_B,/=C/^C/=D/=E/F/) | %66
 (6:4:6z/ (=D,/=E,/F,/=G,/^G,/ (6:4:6^A,/=B,/^C/=D/=E/F/) | %67
 (6:4:6z/ (=D,/=E,/F,/=G,/=A,/ (6:4:6_B,/=C/^C/=D/=E/F/) | %68
 (6:4:6(^F,,/=D,/=E,/^F,/=G,/=A,/ (6:4:6=D/=C/B,/A,/G,/F,/) | %69
 (6:4:6z/[K:treble] ([^c=e]/B/[ce]/)(=A/B/ (6:4:6[ce]/)(^G/A/[ce]/=G/B/) | %70
[K:bass] (6:4:6(^F,,/=D,/=E,/^F,/=G,/=A,/ (6:4:6=D/=C/B,/A,/G,/F,/) | %71
 (6:4:6z/[K:treble] ([^c=e]/B/[ce]/)(=A/B/ (6:4:6[ce]/)(^G/A/[ce]/=G/B/) | %72
[K:bass] (6:4:6(^G,,/=E,/^F,/^G,/=A,/=B,/ (6:4:6=E/=D/=C/B,/A,/G,/) | %73
 (6:4:6z/[K:treble] ([=c_e]/=B/[ce]/)(=A/B/ (6:4:6[ce]/)(_A/=A/[ce]/_G/A/) | %74
[K:bass] (6:4:6(=A,,/F,/=G,/=A,/B,/=C/ (6:4:6F/E/D/C/B,/A,/) | %75
 (6:4:6(=A,,/^F,/^C/^D/C/=B,/ (6:4:6^F/D/C/B,/F,/A,,/) | z !>![B,,E,=G,B,]2 !>![=C,E,G,=C] | %77
 !>![=G,B,E=G][K:treble] !>![B,E=GB]2 !>![=CEG=c] | !>![=GBe=g] !>![=CEG=c]2 !>![B,EGB] | %79
 !>![=G,B,E=G][K:bass] !>![=C,E,G,=C]2 !>![B,,E,G,B,] | z !>![B,,E,_G,B,]2 !>![_C,E,G,_C] | %81
 !>![G,B,EG][K:treble] !>![B,EGB]2 !>![CEGc] | !>![GBeg] !>![CEGc]2 !>![B,EGB] | %83
 !tenuto![G,B,EG][K:bass] ([C,E,G,C]2 [B,,E,G,B,]) | %84
[K:treble] (6:4:6(=D,/B,/F/C/F/G/ (6:4:6A/G/F/_F/E/=D/) | %85
 (6:4:6(E,/C/G/=C/G/A/ (6:4:6=A/_A/G/F/=E/_E/) | (6:4:6(F,/E/=A/=B/d/=c/) (6:4:6(A,/_F/A/B/d/_c/) | %87
 (6:4:6(B,/F/A/B/c/B/ (6:4:6A/G/F/_F/E/=D/) | (6:4:6(=D,/B,/F/C/F/G/ (6:4:6A/G/F/_F/E/=D/) | %89
 (6:4:6(E,/C/G/=C/G/A/ (6:4:6=A/_A/G/F/=E/_E/) | (6:4:6(F,/E/=A/=B/d/=c/) (6:4:6(A,/_F/A/B/d/_c/) | %91
 (6:4:6(B,/F/A/B/c/B/ (6:4:6A/G/F/_F/E/=D/) | %92
[K:bass] (6:4:6(E,,/B,,/=C,/=D,/E,/F,/ (6:4:6G,/A,/=A,/B,/=C/=D/ | %93
 (6:4:6F/E/_D/=C/B,/=A,/ (6:4:6=G,/_G,/F,/F,,/F,/E,/) | %94
 (6:4:6(G,,/D,/E,/F,/G,/A,/ (6:4:6B,/_C/=C/D/E/F/ | %95
 (6:4:6G/F/E/=D/_D/=C/ (6:4:6B,/__B,/A,/A,,/A,/G,/) | %96
 (6:4:6(B,,/F,/=G,/=A,/=C/B,/) (6:4:5x[K:treble] (=G,/ [B,=E]/)(=A,/B,/ | %97
 (6:4:6[=E=G]/)(=B,/=C/[EB]/)(_E/=E/ (6:4:6[Bd]/A/G/A/G/C/) | %98
[K:bass] (6:4:5x[K:treble] (=C/ D/E/D/ (6:4:6C/B,/=A,/D/E/D/ | %99
 (6:4:6=C/D/E/F/E/D/ (6:4:6G/F/E/A/G/F/) | (6:4:6(=D,/B,/F/C/F/G/ (6:4:6A/G/F/_F/E/=D/) | %101
 (6:4:6(E,/C/G/=C/G/A/ (6:4:6=A/_A/G/F/=E/_E/) | (6:4:6(F,/E/=A/=B/d/=c/) (6:4:6(A,/_F/A/B/d/_c/) | %103
 (6:4:6(B,/F/A/B/c/B/ (6:4:6A/G/F/_F/E/=D/) | (6:4:6(=G,/E/B/_F/B/c/ (6:4:6d/c/B/__B/A/=G/) | %105
 (6:4:6(A,/_F/c/=F/c/d/ (6:4:6=d/_d/c/B/=A/_A/) | (6:4:6(B,/A/=d/=e/g/f/ (6:4:6_a/g/f/g/f/B/) | %107
 (6:4:6(C/G/A/B/c/d/ (6:4:6e/d/c/)(=E/^c/)=B/ | %108
 (6:4:6(=A,/=E/=A/^c/=d/^d/ (6:4:6=e/=d/c/=B/_B/A/) | %109
 (6:4:6(=F,/_E/=A/_A/=A/B/ (6:4:6=c/B/A/c/B/A/) | (6:4:6(_A,/E/A/=c/d/=d/ (6:4:6e/_d/c/B/__B/A/) | %111
 (6:4:6(=E,/=D/^G/=G/^G/=A/ (6:4:6=B/A/G/B/A/G/) | %112
 (6:4:6(=G,/=D/=G/=B/=c/^c/ (6:4:6=d/=c/B/=A/G/^F/) | %113
 (6:4:6(^F,/^C/^F/=A/=B/^B/ (6:4:6^c/=B/A/^G/F/^E/) | %114
 (6:4:6(=F,/=C/=F/=A/_B/=B/ (6:4:6=c/_B/A/=G/F/=E/) | %115
 (6:4:6(=E,/=B,/=E/=G/=A/^A/ (6:4:6=B/=A/G/^F/E/^D/) | %116
[K:bass] (6:4:6(_E,,/_B,,/_G,/_B,/E/F/ (6:4:6G/F/E/_D/_C/B,/) | %117
 (6:4:6(G,,/D,/B,/D/E/F/ (6:4:6G/C/B,/G/C/B,/) | (6:4:6(A,,/E,/A,/=C/E/F/ (6:4:6G/F/E/G/F/E/) | %119
 (6:4:6(B,,/A,/=C/=D/E/F/ (6:4:6G/F/E/D/_C/B,/) | %120
 (6:4:6(E,,/B,,/G,/B,/E/F/) (6:4:6z/ (F/E/_D/_C/B,/) | %121
 (6:4:6(G,,/D,/B,/D/E/F/) (6:4:6z/ (C/B,/__E/C/B,/) | (6:4:6(A,,/E,/A,/=C/E/) z/ z (3(D/F/E/) | %123
 (3(B,,,/B,,/F,/[A,=D]) z2 | [E,,B,,G,]4 | [E,,B,,G,]4 | [E,,B,,G,]4 | z4 | z4 | z4 | %130
 z2 !tenuto![F,,,F,,]2 | !tenuto![A,,,A,,]2 !tenuto![B,,,B,,]2 | !tenuto!!fermata![E,,,E,,]4 |] %133
V:4
 x4 | x4 | x4 | x4 | x4 | x4 | x4 | x4 |[K:bass] x4 | x4 | x4 | x4 | x2 !>![=C,,=C,]2[K:treble] | %13
 x4 |[K:bass] [F,,F,]2[K:treble] x2 | x4 | x4 | x4 | x4 | x4 | x4 | x4 | x4 | x4 | x4 | x4 | x4 | %27
 x4 | x4 | x4 | x4 | x4 |[K:bass] x4 | x4 | x4 | x4 | x4 | x4 | x4 | x4 | x4 | x4 | x4 | x4 | x4 | %45
 [E,,,E,,]4[K:treble] |[K:bass] x4 | [E,,,E,,]4[K:treble] | x4 | x4 |[K:bass] x[K:treble] x3 | %51
 x10/3[K:bass] x2/3 | [F,,,F,,]4 | F,,4 | [F,,,F,,]4 | F,,4 | x4 | [G,,,G,,]4[K:treble] | %58
[K:bass] x4 | [G,,,G,,]4[K:treble] | x4 | x4 |[K:bass] x7/3[K:treble] x5/3 | x7/3[K:bass] x5/3 | %64
 [=E,,,=E,,]4 | =E,,4 | [=E,,,=E,,]4 | =E,,4 | x4 | [=G,,,=G,,]4[K:treble] |[K:bass] x4 | %71
 [=G,,,=G,,]4[K:treble] |[K:bass] x4 | !>![=A,,,=A,,]4[K:treble] |[K:bass] x4 | x4 | [_E,,,_E,,]4 | %77
 x[K:treble] x3 | x4 | x[K:bass] x3 | [E,,,E,,]4 | x[K:treble] x3 | x4 | x[K:bass] x3 | %84
[K:treble] x4 | x4 | x4 | x4 | x4 | x4 | x4 | x4 |[K:bass] x4 | x4 | x4 | x4 | %96
 x2 !>![=C,,=C,]2[K:treble] | x4 |[K:bass] [F,,F,]2[K:treble] x2 | x4 | x4 | x4 | x4 | x4 | x4 | %105
 x4 | x4 | x4 | x4 | x4 | x4 | x4 | x4 | x4 | x4 | x4 |[K:bass] x4 | x4 | x4 | x4 | x4 | x4 | x4 | %123
 x4 | x4 | x4 | x4 | x4 | x4 | x4 | x4 | x4 | x4 |] %133

